!!!COM: Zwyssig, Alberich
!!!CDT: 1808-1854
!!!OTL: National Anthem, Switzerland - Swiss Palm
!!!ENC: Davis, Matthew J.
!!Vocal Line Only
**kern
*clefG2
*k[b-e-]
*B-:
*M3/4
=1-
8.f
16f
4f
4b-
=2
8.b-
16a
4a
4r
=3
8.f
16f
4f
4cc
=4
8.cc
16b-
4b-
4r
=5
4.dd
8dd
8cc
8cc
=6
4.cc
8b-
4a
=7
2g
4en
=8
2f
4r
=9
8.a
16a
4a
4a
=10
4.b-
8a
8g
8f
=11
2.f
=12
2f
4r
=13
8.a
16a
4a
4a
=14
4.b-
8cc
4dd
=15
2cc
4b-
=16
2a
4r
=17
8.f
16f
4f
4b-
=18
8.a-
16g
4g
4r
=19
8.g
16g
4g
4cc
=20
8.b-
16an
4an
4r
=21
4.dd
8dd
8ee-
8cc
=22
2b-
4a
=23
2b-
4cc
=24
4.dd
8dd
8ee-
8cc
=25
2b-
4b-
=26
4b-
8a
8g
4a
=27
2b-
==|!
*-
